X:1
T:And love goes on
C:Eart, wind & fire
Z:Creative Commons BY
%%score { ( 1 2 3 ) | 4 }
L:1/4
M:4/4
K:Gb
V:1 treble nm="Piano (a)"
L:1/8
V:2 treble 
V:3 treble 
V:4 bass 
V:1
"^Latin pop soul disco q = 120""_Break" d/ | [FAd]2 [EA=c]2"^Gbmaj7" [FAd][FAd] [EAc] z | %2
w: ||
 [FAd]2 [EA=c]2"^Bbm7" [FAd][FAd] [EAc]z/[_FG__Bd]/ | %3
w: |
 [_FG__Bd]2"^Cbm9" [__EGBc]2 [FGBd][FGBd] [EGBc] z | %4
w: |
 [_FG__Bd]2"^Fb11" [__EGBc]2 [FGBd][FGBd] [EGBc]z/d/ | d2 =c2"^Gbmaj7" dd c z | %6
w: ||
 d2"^Bbm7" =c2 dd cz/d/ | d2"^Cbm9" c2 d"^To coda"d c z | %8
w: ||
"^D11" =G2 A2"^Eb11" =A2"^E11" B>"^F11"d- |:"^Interlude"z>f- fe"^Gbmaj7" de f<g |z>f- fe B2 c2 | %11
w: |||
z>"^Fb[È]"_f- f=d _d=d f/gf/ |z>d __e/_fd/ e/fd/ f2 :: %13
w: ||
"^Vers""_2. Everyday, I'm wishing for that day to come.""_1. I would be so willing to give you all I got." Bd"^Gbmaj7" dB/e/- e<e"^we can work it out!"z>B | %14
w: |
 Bd dB/e/- e2"^Yes I really love you, and without a doubt""_Feeling superstitious hoping she's the one" z2 | %15
w: |
"_You're a special lady, forget me not." d"^Fb[È]"c __Bc/d/- d<d z2 |z>__e de/d/- d2 z2 | %17
w: ||
"_One day I'm lonely, next with plenty smiles.""_I could be so tender, for the likes of you.""^I can make you happy, plant good memory" B"^Gbmaj7"d dB/e/- e<ez>B | %18
w: |
 Bd dB/e/- e2"^that will last forever!" z2"_Let my heart surrender! And love goes" | %19
w: |
"_Love I find amusing." d"^Fb[È]"c __Bc/d/- d<d z2 | z2 D2 G2 d2 | A4"^Gbmaj7" G4 | z2 D2 G2 d2 | %23
w: ||On _|and on and|
 A4"^Fb[È]" G4 | z2 D2 G2 d2 | d8-"^Gbmaj7" | d2 c2 __B2 A2 | __B"^Fb[È]"A G6 |1 %28
w: on. _|Your heart beats|strong|_ as love goes|on. * *|
"^3. Third ending go to intro al coda."z>D __E/_FD/ E/FD/ F2 :|2 z4 z2 (Bc || %30
w: |Oh. _|
 B2)"^Abm9" (CD EF)GA | B2"^Db7" c2 A2"_you should know, without a doubt" GA- | A4"^Bbm7b5" z2 Bc | %33
w: _ Oh _ _ _ And if|we could work it out,||
 d2"^Eb7" c2 B2 AG | z4"^Bbm7" z2"_I will always be the one____" Bc | B2"^Db7" c2 A2 GA- | %36
w: |||
 A4"^Bbm7b5""_you can turn to___________"zB de- |"^Eb7" e(dBG- G2 A2) | %38
w: ||
"^Cbm7" __B6"_A friend until the end,"cd- | d2"^Fb7" __ed- d2 dd | %40
w: ||
 z4"^Dbm7b5" z2"_no matter where we've been" __e2 | _f2"^Gb7" __e2 d2 c__B | %42
w: ||
"^Cbm7"z6"_Sometimes you can't hold on."cd- | d2"^Fb7" __ed- d2 dd | %44
w: ||
z4"^Dbm7b5"z"_You got to give it space - yea yea!"G __BG | %45
w: |
"^D11" __B2 c2"^Eb11""^Dal segno" d2"^E11" __e2"^F11" |] %46
w: |
"^D11" =G2"^Eb11" A2"^E11" =A2"^F11" B2"^(Drum fill)" ||[K:Ab] z2"^F11" B2"^Gb11" =B2"^G11" c2 | %48
w: ||
"_4. Love, tender, and with you in mind," a4"^Abmaj7" fe z2 | ce ec/f/- f2 z2 | %50
w: ||
"_now my heart surrender just to make you mine." e"^Gb[È]"d _cd/e/- e<e z2 | e>_f ef/e/- e2 z2 | %52
w: ||
"_Baby baby baby, what you gonna do?" c"^Abmaj7"e ec/f/- f<f z2 | %53
w: |
 ce ec/f/- f2"_Give your heart to me! I'll give my heart to" z2 | e"^Gb[È]"d _cd/e/- e2ze | %55
w: ||
 z2 e2 a2 e'2 | b4 a4"^Abmaj7" | z2 E2 A2 e2 | B4"^Gb[È]" A4 | z2 E2 A2 e2 | e8-"^Abmaj7" | %61
w: My heart beats|strong! *|||||
 e2 d2 _c2 B2 | _c"^Gb[È]"B A6 |z>E _F/_GE/ F/GE/ G2 |z>g-"^Abmaj7" gf ef g<a |z>g- gf (c2 d2) | %66
w: |||||
z>"^Gb[È]"_g- g_f ef g/ag/ |z>e _f/_ge/ f/ge/ fg | %68
w: ||
 z2 a2"_Fine" z4"^Form: Intro, interlude, vers1, refr, vers2, refr, stick, interlude, vers3, refr, intro, vers4, refr al fine." |] %69
w: |
V:2
 x/4 | x4 | x4 | x4 | x4 | x4 | x4 | x4 | x4 |: x4 | x4 | x4 | x4 :: x4 | x4 | x4 | x4 | x4 | x4 | %19
w: |||||||||||||||||||
 x4 | x4 | x4 | x4 | x4 | x4 | x4 | x4 | x4 |1 x4 :|2 x4 || x4 | x4 | x4 | x4 | x4 | x4 | x4 | x4 | %38
w: |||||||||||||||||||
 x4 | x4 | x4 | x4 | x4 | x4 | x4 | x4 |] x4 ||[K:Ab] x4 | x4 | x4 | x4 | x4 | x4 | x4 | x4 | %55
w: |||||||||||||||||
 e d e __f | e3 z | x4 | x4 | x4 | x4 | x4 | x4 | x4 | x4 | x4 | x4 | x4 | x4 |] %69
w: |you!|||||||||||||
V:3
 x/4 | x4 | x4 | x4 | x4 | x4 | x4 | x4 | x4 |: x4 | x4 | x4 | x4 :: g2 e z | x4 | x4 | x4 | x4 | %18
w: |||||||||||||3.~Ba- by!|||||
 x4 | x4 | x4 | x4 | x4 | x4 | x4 | x4 | x4 | x4 |1 x4 :|2 x4 || x4 | x4 | x4 | x4 | x4 | x4 | x4 | %37
w: |||||||||||||||||||
 x4 | x4 | x4 | x4 | x4 | x4 | x4 | x4 | x4 |] x4 ||[K:Ab] x4 | x4 | x4 | x4 | x4 | x4 | x4 | x4 | %55
w: ||||||||||||||||||
 x4 | x4 | x4 | x4 | x4 | x4 | x4 | x4 | x4 | x4 | x4 | x4 | x4 | x4 |] %69
w: ||||||||||||||
V:4
 D,/4 | [D,G,B,] z z2 | [D,F,B,]zz7/4C,/4 | [C,_F,] z z2 | [_F,,__E,] z z2 | x4 | x4 | x4 | x4 |: %9
 x4 | x4 | x4 | x4 :: x4 | x4 | x4 | x4 | x4 | x4 | x4 | x4 | x4 | x4 | x4 | x4 | x4 | x4 | x4 |1 %28
 x4 :|2 x4 || x4 | x4 | x4 | x4 | x4 | x4 | x4 | x4 | x4 | x4 | x4 | x4 | x4 | x4 | x4 | x4 |] %46
 x4 ||[K:Ab] x4 | x4 | x4 | x4 | x4 | x4 | x4 | x4 | x4 | x4 | x4 | x4 | x4 | x4 | x4 | x4 | x4 | %64
 x4 | x4 | x4 | x4 | x4 |] %69

